outputs/icons/communication/dollar_sharp.svg

<svg xmlns="http://www.w3.org/2000/svg" width="1200" height="1200" fill="none"><path fill="#000" fill-rule="evenodd" d="M562.425 101.236c-68.251 4.767-124.162 20.191-185.282 51.113-62.115 31.425-114.693 72.47-155.919 121.716-64.867 77.486-102.174 159.782-115.733 255.3-5.614 39.545-6.775 67.575-4.16 100.445 7.348 92.36 36.57 178.35 85.513 251.63 30.721 46 85.077 100.21 133.137 132.78 51.597 34.965 102.591 57.365 168.315 73.925 42.949 10.825 62.944 12.685 124.449 11.575 49.33-.89 57.7-1.54 78.37-6.07 72.11-15.805 132.875-40.865 186.455-76.895 109.565-73.68 182.89-181.42 212.68-312.5 8.815-38.765 10.635-61.135 9.405-115.58-1.225-54.41-4.73-79.985-16.54-120.777-26.105-90.148-64.865-157.422-126.245-219.111-66.58-66.912-150.475-114.157-242.765-136.704-41.565-10.156-100.865-14.397-151.68-10.847m98.345 102.688c36.845 4.429 89.925 21.839 126.545 41.504 90.06 48.367 159.025 129.786 191.33 225.874 42.145 125.353 20.1 262.588-59.47 370.198-15.225 20.58-49.455 56.025-70.685 73.185-72.75 58.795-183.22 93.265-273.47 85.33-148.2-13.035-266.478-92.17-331.412-221.735-39.459-78.74-51.648-173.05-33.799-261.525 10.752-53.298 37.34-112.05 71.359-157.679 14.019-18.803 46.724-53.038 64.822-67.853 61.159-50.066 147.312-85.427 217.685-89.349 29.36-1.636 74.335-.687 97.095 2.05m-110.13 95.524-16.55 4.768c-48.773 14.051-91.834 48.233-113.466 90.07-17.806 34.438-18.409 37.001-18.409 78.197 0 40.497 1.465 47.982 14.437 73.767 25.354 50.4 65.836 83.945 119.268 98.835 11.01 3.07 12.45 4.075 13.52 9.44.66 3.305 1.2 37.555 1.2 76.115v70.105H400.209V901.26H550.64v50.255h100.285v-51.67l13.54-3.61c55.1-14.7 93.235-46.19 119.29-98.505 13.485-27.07 14.5-32.235 14.415-73.37-.08-36.835-.14-37.355-6.47-54.16-21.245-56.395-66.045-97.49-125.355-114.98l-15.42-4.55V398.7h150.43V298.188h-150.43v-50.256H550.64zm0 174.764v71.493l-8.295-4.65c-10.115-5.675-25.385-22.47-32.735-36.005-5.16-9.503-5.41-11.199-4.76-32.557.815-26.979 3.365-33.412 19.8-49.998 9.045-9.128 22.71-19.726 25.485-19.767.28-.004.505 32.164.505 71.484M675.95 673.13c18.365 18.135 21.01 24.7 21.045 52.235.02 20.705-.345 22.75-5.745 32.195-7.885 13.77-22.07 29.17-32.045 34.775l-8.28 4.65v-143.09l5.845 3.03c3.215 1.665 11.845 8.96 19.18 16.205"/></svg>

<svg width="1200" height="1200" viewBox="0 0 1200 1200" fill="none" xmlns="http://www.w3.org/2000/svg"><path fill-rule="evenodd" d="M562.425 101.236C494.174 106.003 438.263 121.427 377.143 152.349C315.028 183.774 262.45 224.819 221.224 274.065C156.357 351.551 119.05 433.847 105.491 529.365C99.877 568.91 98.716 596.94 101.331 629.81C108.679 722.17 137.901 808.16 186.844 881.44C217.565 927.44 271.921 981.65 319.981 1014.22C371.578 1049.185 422.572 1071.585 488.296 1088.145C531.245 1098.97 551.24 1100.83 612.745 1099.72C662.075 1098.83 670.445 1098.18 691.115 1093.65C763.225 1077.845 823.99 1052.785 877.57 1016.755C987.135 943.075 1060.46 835.335 1090.25 704.255C1099.065 665.49 1100.885 643.12 1099.655 588.675C1098.43 534.265 1094.925 508.69 1083.115 467.898C1057.01 377.75 1018.25 310.476 956.87 248.787C890.29 181.875 806.395 134.63 714.105 112.083C672.54 101.927 613.24 97.686 562.425 101.236ZM660.77 203.924C697.615 208.353 750.695 225.763 787.315 245.428C877.375 293.795 946.34 375.214 978.645 471.302C1020.79 596.655 998.745 733.89 919.175 841.5C903.95 862.08 869.72 897.525 848.49 914.685C775.74 973.48 665.27 1007.95 575.02 1000.015C426.82 986.98 308.542 907.845 243.608 778.28C204.149 699.54 191.96 605.23 209.809 516.755C220.561 463.457 247.149 404.705 281.168 359.076C295.187 340.273 327.892 306.038 345.99 291.223C407.149 241.157 493.302 205.796 563.675 201.874C593.035 200.238 638.01 201.187 660.77 203.924ZM550.64 299.448L534.09 304.216C485.317 318.267 442.256 352.449 420.624 394.286C402.818 428.724 402.215 431.287 402.215 472.483C402.215 512.98 403.68 520.465 416.652 546.25C442.006 596.65 482.488 630.195 535.92 645.085C546.93 648.155 548.37 649.16 549.44 654.525C550.1 657.83 550.64 692.08 550.64 730.64V800.745H400.209V901.26H550.64V951.515H650.925V899.845L664.465 896.235C719.565 881.535 757.7 850.045 783.755 797.73C797.24 770.66 798.255 765.495 798.17 724.36C798.09 687.525 798.03 687.005 791.7 670.2C770.455 613.805 725.655 572.71 666.345 555.22L650.925 550.67V398.7H801.355V298.188H650.925V247.932H550.64V299.448ZM550.64 474.212V545.705L542.345 541.055C532.23 535.38 516.96 518.585 509.61 505.05C504.45 495.547 504.2 493.851 504.85 472.493C505.665 445.514 508.215 439.081 524.65 422.495C533.695 413.367 547.36 402.769 550.135 402.728C550.415 402.724 550.64 434.892 550.64 474.212ZM675.95 673.13C694.315 691.265 696.96 697.83 696.995 725.365C697.015 746.07 696.65 748.115 691.25 757.56C683.365 771.33 669.18 786.73 659.205 792.335L650.925 796.985V653.895L656.77 656.925C659.985 658.59 668.615 665.885 675.95 673.13Z" fill="black"/></svg>
